X: 5324
T: Brúigh Isteach Liom, A Shiobháinín
R: polka
M: 2/4
K: Dmajor
|:A2|D>E FG|AB/B/ AF|G>F GE|FE DA|
DE FG|AB Ad|cA CE|D2:|
|:A2|d2 cB|AB/B/ AF|GF/F/ GE|F/F/E DA|
d2 cB|AB/B/ Ad|c/B/A C/D/E|D2:|

